static/img/pictures/partners/cipher.svg

<?xml version="1.0" encoding="UTF-8"?>
<svg width="92px" height="92px" viewBox="0 0 92 92" version="1.1" xmlns="http://www.w3.org/2000/svg" xmlns:xlink="http://www.w3.org/1999/xlink">
    <!-- Generator: Sketch 49.1 (51147) - http://www.bohemiancoding.com/sketch -->
    <title>Page 1</title>
    <desc>Created with Sketch.</desc>
    <defs>
        <polygon id="path-1" points="0 0.0003 91.9998 0.0003 91.9998 92 0 92"></polygon>
        <linearGradient x1="14.9048753%" y1="14.8710577%" x2="85.3298331%" y2="85.1698408%" id="linearGradient-3">
            <stop stop-color="#3646A8" offset="0%"></stop>
            <stop stop-color="#202B87" offset="100%"></stop>
        </linearGradient>
    </defs>
    <g id="Page-1" stroke="none" stroke-width="1" fill="none" fill-rule="evenodd">
        <g id="Landing-page" transform="translate(-309.000000, -5728.000000)">
            <g id="partners" transform="translate(230.000000, 5574.000000)">
                <g id="cipher" transform="translate(0.000000, 154.000000)">
                    <g id="Page-1" transform="translate(79.000000, 0.000000)">
                        <g id="Group-3">
                            <mask id="mask-2" fill="white">
                                <use xlink:href="#path-1"></use>
                            </mask>
                            <g id="Clip-2"></g>
                            <path d="M91.9998,46.0003 C91.9998,71.4043 71.4048,92.0003 45.9998,92.0003 C20.5948,92.0003 -0.0002,71.4043 -0.0002,46.0003 C-0.0002,20.5953 20.5948,0.0003 45.9998,0.0003 C71.4048,0.0003 91.9998,20.5953 91.9998,46.0003" id="Fill-1" fill="url(#linearGradient-3)" mask="url(#mask-2)"></path>
                        </g>
                        <path d="M46.0037,30.4134 C43.2657,30.4134 41.0477,28.1924 41.0477,25.4544 C41.0477,22.7164 43.2657,20.4954 46.0037,20.4954 C48.7417,20.4954 50.9627,22.7164 50.9627,25.4544 C50.9627,28.1924 48.7417,30.4134 46.0037,30.4134 M60.7877,21.0944 L50.3637,10.6734 C47.9567,8.2634 44.0537,8.2634 41.6467,10.6734 L31.2227,21.0944 C28.8157,23.5014 28.8157,27.4044 31.2227,29.8144 L41.6467,40.2354 C44.0537,42.6424 47.9567,42.6424 50.3637,40.2354 L60.7877,29.8144 C63.1947,27.4044 63.1947,23.5014 60.7877,21.0944" id="Fill-4" fill="#FFFFFF"></path>
                        <path d="M46.0037,71.5062 C43.2657,71.5062 41.0477,69.2862 41.0477,66.5482 C41.0477,63.8092 43.2657,61.5892 46.0037,61.5892 C48.7417,61.5892 50.9627,63.8092 50.9627,66.5482 C50.9627,69.2862 48.7417,71.5062 46.0037,71.5062 M60.7877,62.1872 L50.3637,51.7672 C47.9567,49.3562 44.0537,49.3562 41.6467,51.7672 L31.2227,62.1872 C28.8157,64.5942 28.8157,68.4982 31.2227,70.9082 L41.6467,81.3292 C44.0537,83.7362 47.9567,83.7362 50.3637,81.3292 L60.7877,70.9082 C63.1947,68.4982 63.1947,64.5942 60.7877,62.1872" id="Fill-6" fill="#FFFFFF"></path>
                        <path d="M25.4471,50.9701 C22.7091,50.9701 20.4921,48.7491 20.4921,46.0111 C20.4921,43.2731 22.7091,41.0521 25.4471,41.0521 C28.1851,41.0521 30.4061,43.2731 30.4061,46.0111 C30.4061,48.7491 28.1851,50.9701 25.4471,50.9701 M40.2311,41.6501 L29.8081,31.2301 C27.4011,28.8191 23.4971,28.8191 21.0901,31.2301 L10.6661,41.6501 C8.2591,44.0571 8.2591,47.9611 10.6661,50.3711 L21.0901,60.7921 C23.4971,63.1991 27.4011,63.1991 29.8081,60.7921 L40.2311,50.3711 C42.6391,47.9611 42.6391,44.0571 40.2311,41.6501" id="Fill-8" fill="#FFFFFF"></path>
                        <path d="M66.5418,41.0521 C69.2808,41.0521 71.5008,43.2731 71.5008,46.0111 C71.5008,48.7491 69.2808,50.9671 66.5418,50.9671 C63.8038,50.9671 61.5828,48.7491 61.5828,46.0111 C61.5828,43.2731 63.8038,41.0521 66.5418,41.0521" id="Fill-10" fill="#FFFFFF"></path>
                        <path d="M79.8504,48.8958 L69.4264,59.3168 C68.6574,60.0888 67.6324,60.5128 66.5404,60.5128 C65.4534,60.5128 64.4284,60.0888 63.6594,59.3168 L53.2354,48.8958 C51.6434,47.3038 51.6434,44.7158 53.2354,43.1248 L63.6594,32.7048 C64.4284,31.9308 65.4534,31.5078 66.5404,31.5078 C67.6294,31.5078 68.6544,31.9308 69.4264,32.7048 L79.8504,43.1248 C81.4424,44.7158 81.4424,47.3038 79.8504,48.8958 M81.3314,41.6398 L70.9114,31.2168 C68.5034,28.8088 64.6004,28.8088 62.1894,31.2168 L51.7694,41.6398 C49.3624,44.0468 49.3624,47.9518 51.7694,50.3588 L62.1894,60.7828 C64.6004,63.1898 68.5034,63.1898 70.9114,60.7828 L81.3314,50.3588 C83.7424,47.9518 83.7424,44.0468 81.3314,41.6398" id="Fill-12" fill="#FFFFFF"></path>
                    </g>
                </g>
            </g>
        </g>
    </g>
</svg>

<svg width="92" height="92" xmlns="http://www.w3.org/2000/svg" xmlns:xlink="http://www.w3.org/1999/xlink"><defs><path id="a" d="M0 0h92v92H0z"/><linearGradient x1="14.905%" y1="14.871%" x2="85.33%" y2="85.17%" id="b"><stop stop-color="#3646A8" offset="0%"/><stop stop-color="#202B87" offset="100%"/></linearGradient></defs><g fill="none" fill-rule="evenodd"><mask id="c" fill="#fff"><use xlink:href="#a"/></mask><path d="M92 46c0 25.404-20.595 46-46 46S0 71.404 0 46C0 20.595 20.595 0 46 0s46 20.595 46 46" fill="url(#b)" mask="url(#c)"/><path d="M46.004 30.413a4.957 4.957 0 0 1-4.956-4.959 4.957 4.957 0 1 1 9.915 0 4.96 4.96 0 0 1-4.96 4.96m14.785-9.32l-10.424-10.42a6.159 6.159 0 0 0-8.717 0l-10.424 10.42a6.168 6.168 0 0 0 0 8.72l10.424 10.421a6.164 6.164 0 0 0 8.717 0l10.424-10.42a6.168 6.168 0 0 0 0-8.72M46.004 71.506a4.957 4.957 0 0 1-4.956-4.958 4.957 4.957 0 1 1 9.915 0 4.96 4.96 0 0 1-4.96 4.958m14.785-9.319l-10.424-10.42a6.157 6.157 0 0 0-8.717 0l-10.424 10.42a6.169 6.169 0 0 0 0 8.721L41.647 81.33a6.164 6.164 0 0 0 8.717 0l10.424-10.42a6.169 6.169 0 0 0 0-8.722M25.447 50.97a4.957 4.957 0 0 1-4.955-4.959 4.957 4.957 0 1 1 9.914 0 4.96 4.96 0 0 1-4.959 4.96m14.784-9.32L29.808 31.23a6.158 6.158 0 0 0-8.718 0L10.666 41.65a6.169 6.169 0 0 0 0 8.72L21.09 60.792a6.165 6.165 0 0 0 8.718 0l10.423-10.42a6.167 6.167 0 0 0 0-8.722m26.311-.598a4.957 4.957 0 1 1 0 9.915 4.957 4.957 0 1 1 0-9.915" fill="#FFF"/><path d="M79.85 48.896l-10.424 10.42a4.044 4.044 0 0 1-2.886 1.197 4.041 4.041 0 0 1-2.88-1.196L53.234 48.896a4.084 4.084 0 0 1 0-5.771l10.424-10.42a4.034 4.034 0 0 1 2.881-1.197c1.09 0 2.114.423 2.886 1.197l10.424 10.42a4.084 4.084 0 0 1 0 5.77m1.481-7.255L70.91 31.217a6.168 6.168 0 0 0-8.722 0L51.77 41.64a6.167 6.167 0 0 0 0 8.719l10.42 10.424a6.17 6.17 0 0 0 8.722 0l10.42-10.424a6.16 6.16 0 0 0 0-8.72" fill="#FFF"/></g></svg>
